X:1
T:Lead Me Safely On
T:Lead Me Safely On
T:R. A. Glenn
T:J. H. Leslie, 1878
T:Public Domain Courtesy of the Cyber Hymnal™
T:Public Domain Courtesy of the Cyber Hymnal™
C:R. A. Glenn
Z:Public Domain
Z:Courtesy of the Cyber Hymnal™
%%score ( 1 2 ) ( 3 4 )
L:1/8
Q:1/4=102
M:4/4
K:E
V:1 treble 
V:2 treble 
V:3 bass 
V:4 bass 
V:1
 E>[EG] | [GB]2 [GB]2 [GB]2 [Ac]>[GB] | [EG]2 [EG]2 [EG]2 [EA]>[EB] | [Ec]2 [Ec]2 [Ec]2 [EB]>[EG] | %4
w: 1.~Lead me|safe- ly on by the|nar- row way, From the|shores of time to the|
w: 2.~With a|shep- herd’s care thro’ the|night and day, Keep me|close to Thee lest I|
w: 3.~Thro’ the|storms of life, ’mid the|o- cean’s foam, Lead me|safe- ly on to my|
 [DF]2 [DF]2 !fermata![DF]2 E>[EG] | [GB]2 [GB]2 [GB]2 [Ac]>[GB] | [EG]2 [EG]2 [EG]2 [EA]>[EB] | %7
w: realms of day; By the|cross of Christ may I|ev- er stand, As I|
w: go as- tray; Lead me|safe- ly on by Thy|ten- der love, Thro’ this|
w: heav’n- ly home; At the|fount of life on the|oth- er shore, Let me|
 [Ec]2 [Ec]2 [EB]2 E>[EF] | [EG]2 [DF]2 !fermata!E2 ||"^Refrain" (3(EF)G | (z2 (3GF)E x6 | %11
w: jour- ney on to the|bet- ter land.|||
w: world of sin to my|home a- bove.|||
w: free- ly drink till I|thirst no more.|Lead * me|* * on,|
 (z2 [DF]>)[EG] x6 | [FA]2 [GB]2 [Ac]2 [GB]2 | [EG]6 (3(EF)G | (z2 (3GF)E x6 | (z2 [EA]>)[Ec] x6 | %16
w: |||||
w: |||||
w: * lead|me on, By the|straight and * nar-|* * row|* way,|
 [EB]2 (E>F) [EG]2 [DF]2 | E6 |] %18
w: ||
w: ||
w: Lead me * on, lead|me|
V:2
 E3/2 x/ | x8 | x8 | x8 | x6 E3/2 x/ | x8 | x8 | x6 E3/2 x/ | x4 E2 || x2 | (B6 E>E E2) | %11
 (F6 D>D D2) | x8 | x8 | (B6 E>E E2) | (c6 E>E E2) | x2 E2 x4 | E6 |] %18
V:3
 [E,G,]>[E,B,] | [E,E]2 [E,E]2 [E,E]2 [E,E]>[E,E] | [E,B,]2 [E,B,]2 [E,B,]2 [F,B,]>[G,B,] | %3
 A,2 A,2 A,2 [G,B,]>[E,B,] | [B,,B,]2 [B,,B,]2 !fermata![B,,B,]2 [E,G,]>[E,B,] | %5
 [E,E]2 [E,E]2 [E,E]2 [E,E]>[E,E] | [E,B,]2 [E,B,]2 [E,B,]2 [F,B,]>[G,B,] | %7
 A,2 A,2 [G,B,]2 [A,C]>[A,C] | B,2 [B,,A,]2 !fermata![E,G,]2 || z2 | %10
 z2 [E,G,]>[E,G,] [E,G,]2 z2 x2 | z2 [B,,B,]>[B,,B,] [B,,B,]2 [B,,B,]>[B,,B,] x2 | %12
 [B,,B,]2 [B,,B,]2 [B,,B,]2 [B,,B,]2 | [E,B,]6 z2 | z2 [E,G,]>[E,G,] [E,G,]2 z2 x2 | %15
 z2 A,>A, A,2 [A,C]>A, x2 | [G,B,]2 [A,C]2 B,2 [B,,A,]2 | [E,G,]6 |] %18
V:4
 x2 | x8 | x8 | A,2 A,2 A,2 x2 | x8 | x8 | x8 | A,2 A,2 x4 | B,2 x4 || x2 | x10 | x10 | x8 | x8 | %14
 x10 | x2 A,>A, A,2 A,/ x7/2 | x4 B,2 x2 | x6 |] %18

